src/img/categories/baby.svg

<svg width="38" height="34" viewBox="0 0 38 34" fill="none" xmlns="http://www.w3.org/2000/svg">
<path fill-rule="evenodd" clip-rule="evenodd" d="M27.7856 7.60685C29.6187 9.08814 31.0603 10.9968 31.9836 13.1652C33.4562 13.1932 34.859 13.7979 35.8906 14.8492C36.9221 15.9005 37.5 17.3146 37.5 18.7875C37.5 20.2604 36.9221 21.6745 35.8906 22.7258C34.859 23.7771 33.4562 24.3818 31.9836 24.4098C30.8795 27.0059 29.0362 29.22 26.6831 30.7764C24.3301 32.3327 21.5712 33.1625 18.75 33.1625C15.9288 33.1625 13.1699 32.3327 10.8169 30.7764C8.46379 29.22 6.62048 27.0059 5.51641 24.4098C4.0438 24.3818 2.64095 23.7771 1.60941 22.7258C0.577876 21.6745 0 20.2604 0 18.7875C0 17.3146 0.577876 15.9005 1.60941 14.8492C2.64095 13.7979 4.0438 13.1932 5.51641 13.1652C6.61579 10.5797 8.44858 8.37286 10.7883 6.81744C13.1281 5.26202 15.8722 4.42616 18.6818 4.41313L21.44 0L23.56 1.325L21.4697 4.66945C23.7837 5.11691 25.9524 6.12556 27.7856 7.60685ZM31.9361 21.9102C32.7538 21.8963 33.5331 21.5606 34.1048 20.9758C34.5325 20.5404 34.8233 19.9893 34.9412 19.3905C35.0591 18.7918 34.999 18.1715 34.7683 17.6066C34.5376 17.0416 34.1464 16.5566 33.643 16.2115C33.1397 15.8664 32.5463 15.6763 31.9361 15.6648L30.3169 15.634L29.6831 14.1438C28.7711 11.9988 27.2483 10.1695 25.3043 8.88354C23.3602 7.59763 21.0809 6.91199 18.75 6.91199C16.4192 6.91199 14.1398 7.59763 12.1958 8.88354C10.2518 10.1695 8.72895 11.9988 7.81695 14.1438L7.18305 15.634L5.56391 15.6648C4.74583 15.6801 3.96643 16.0158 3.39329 16.5998C2.82016 17.1837 2.49907 17.9693 2.49907 18.7875C2.49907 19.6057 2.82016 20.3913 3.39329 20.9752C3.96643 21.5592 4.74583 21.8949 5.56391 21.9102L7.18305 21.941L7.81695 23.4312C8.72892 25.5762 10.2517 27.4056 12.1958 28.6915C14.1398 29.9775 16.4192 30.6631 18.75 30.6631C21.0809 30.6631 23.3603 29.9775 25.3043 28.6915C27.2483 27.4056 28.7712 25.5762 29.6831 23.4312L30.3169 21.941L31.9361 21.9102ZM15 15.6625H11.875V18.7875H15V15.6625ZM22.5 15.6625H25.625V18.7875H22.5V15.6625ZM21.1418 27.0618C20.3835 27.3758 19.5708 27.5375 18.75 27.5375C17.0924 27.5375 15.5027 26.879 14.3306 25.7069C13.7502 25.1266 13.2898 24.4376 12.9758 23.6793C12.6617 22.921 12.5 22.1083 12.5 21.2875H25C25 22.1083 24.8383 22.921 24.5242 23.6793C24.2102 24.4376 23.7498 25.1266 23.1694 25.7069C22.5891 26.2873 21.9001 26.7477 21.1418 27.0618Z" fill="#232F3E"/>
</svg>

<svg width="38" height="34" fill="none" xmlns="http://www.w3.org/2000/svg"><path fill-rule="evenodd" clip-rule="evenodd" d="M27.786 7.607a14.4 14.4 0 014.198 5.558 5.624 5.624 0 010 11.245 14.381 14.381 0 01-26.468 0 5.623 5.623 0 010-11.245 14.379 14.379 0 0113.166-8.752L21.44 0l2.12 1.325-2.09 3.344a14.399 14.399 0 016.316 2.938zm4.15 14.303a3.123 3.123 0 000-6.245l-1.62-.031-.633-1.49a11.88 11.88 0 00-21.866 0l-.634 1.49-1.62.03a3.123 3.123 0 000 6.246l1.62.031.634 1.49a11.88 11.88 0 0021.866 0l.634-1.49 1.62-.03zM15 15.662h-3.125v3.126H15v-3.126zm7.5 0h3.125v3.126H22.5v-3.126zm-1.358 11.4a6.252 6.252 0 01-8.642-5.774H25a6.25 6.25 0 01-3.858 5.774z" fill="#232F3E"/></svg>
